icons/content/plugin.svg

<svg width="16" height="16" xmlns="http://www.w3.org/2000/svg">
  <path d="M2 5h12v9H2V5zm1-3h4v2H3V2zm6 0h4v2H9V2z"/>
</svg>

<?xml version="1.0" encoding="UTF-8" standalone="no"?>
<svg width="16px" height="16px" viewBox="0 0 16 16" version="1.1" xmlns="http://www.w3.org/2000/svg" xmlns:xlink="http://www.w3.org/1999/xlink" xmlns:sketch="http://www.bohemiancoding.com/sketch/ns">
    <!-- Generator: Sketch 3.3.2 (12043) - http://www.bohemiancoding.com/sketch -->
    <title>plugin</title>
    <desc>Created with Sketch.</desc>
    <defs></defs>
    <g id="Page-1" stroke="none" stroke-width="1" fill="none" fill-rule="evenodd" sketch:type="MSPage">
        <g id="plugin" sketch:type="MSArtboardGroup" fill="#7BB87B">
            <path d="M2,5 L14,5 L14,14 L2,14 L2,5 L2,5 Z M3,2 L7,2 L7,4 L3,4 L3,2 L3,2 Z M9,2 L13,2 L13,4 L9,4 L9,2 L9,2 Z" id="Rectangle-6" sketch:type="MSShapeGroup"></path>
        </g>
    </g>
</svg>
